X:1
T:Sandy Boys
L:1/8
M:4/4
I:linebreak $
K:D
V:1 treble
V:1
 eg |: "A" a2 g2 e2 g2 | ed c2 A2 a2 | a2 g2 e2 g2 |"G" a3 b a2 eg |$
 "A" abag egec | d2 c2 A2 AB |  cdec "G"d2 c2 |"A"  A3 B A2 eg :|$
 |: "A" e4 e3 c | d2 c2 A3 A | cB A2 cB A2 |"D" d4 f4 |$
 "A" e2 e2 efge |  d2 c2 A2 AB | cdec "G"d2 c2 |"A"  A3 B A2 eg :|
